svgs/google_fit.svg

<svg width="24" height="24" viewBox="0 0 24 24" fill="none" xmlns="http://www.w3.org/2000/svg">
<path d="M18.2959 7.12807C17.5483 6.38045 16.3361 6.38045 15.5885 7.12807L9.29757 13.419L9.29948 13.4209L7.0698 15.6506L3.4843 12.0653C1.50523 10.0862 1.50523 6.87752 3.4843 4.89845C5.46336 2.91938 8.67204 2.91938 10.6511 4.89845L10.9332 5.18058L8.70357 7.41026L8.42143 7.12813C7.67381 6.38049 6.46159 6.38049 5.71397 7.12813C4.96629 7.87578 4.96629 9.08796 5.71397 9.8356L7.06776 11.1894L13.3588 4.89841C15.3378 2.91934 18.5465 2.91934 20.5256 4.89838C22.5047 6.87744 22.5047 10.0862 20.5256 12.0653L12.0051 20.5859L8.13046 16.7112L10.3601 14.4815L12.0051 16.1265L18.2959 9.83557C19.0436 9.08793 19.0435 7.87571 18.2959 7.12807Z" fill="#FFF1C0"/>
</svg>

<svg xmlns="http://www.w3.org/2000/svg" width="24" height="24" fill="none" viewBox="0 0 24 24"><path fill="#FFF1C0" d="M18.296 7.128a1.914 1.914 0 0 0-2.707 0L9.298 13.42l.001.002-2.23 2.23-3.585-3.586a5.068 5.068 0 0 1 7.167-7.167l.282.283-2.23 2.23-.282-.283a1.914 1.914 0 0 0-2.707 2.708l1.354 1.353 6.29-6.29a5.068 5.068 0 1 1 7.168 7.166l-8.52 8.52-3.876-3.874 2.23-2.23 1.645 1.646 6.29-6.291a1.915 1.915 0 0 0 0-2.708"/></svg>
